src/16/panel/yd-ind-error.svg

<svg xmlns="http://www.w3.org/2000/svg" width="16" height="16" version="1">
 <defs>
  <style id="current-color-scheme" type="text/css">
   .ColorScheme-Text { color:#dfdfdf; } .ColorScheme-Highlight { color:#FF5252; }
  </style>
 </defs>
 <path style="fill:currentColor" class="ColorScheme-Highlight" d="M 7.092,2.0466 C 3.5364,2.0466 4.3636,5.2947 2.5432,6.2731 2.4804,6.3087 2.4451,6.3415 2.3889,6.3766 3.5894,5.6621 5.0692,5.0646 6.6408,4.6599 7.972,4.3175 9.322,4.1254 10.567,4.1013 10.599,4.1011 10.631,4.1011 10.662,4.1013 9.462,3.7601 9.33,2.0466 7.092,2.0466 Z M 10.967,5.0016 C 9.722,5.0258 8.372,5.2179 7.041,5.5602 2.6547,6.689 -0.4714,9.144 0.0588,11.043 0.3643,12.128 1.8364,12.844 4.0295,12.974 4.0285,12.966 4.0265,12.959 4.0256,12.951 3.9072,11.924 4.5587,11.031 5.3225,10.425 6.0863,9.82 7.069,9.38 8.172,9.146 9.275,8.912 10.308,8.923 11.172,9.183 11.984,9.428 12.748,9.961 12.936,10.877 15.134,9.644 16.274,8.158 15.944,6.9567 15.594,5.6985 13.685,4.9487 10.967,5.0016 Z M 9.662,10 A 1.8586,3.577 76.001 0 0 8.285,10.142 1.8586,3.577 76.001 0 0 5.0061,12.742 1.8586,3.577 76.001 0 0 8.715,13.857 1.8586,3.577 76.001 0 0 11.992,11.258 1.8586,3.577 76.001 0 0 9.662,10 Z"/>
</svg>

<svg xmlns="http://www.w3.org/2000/svg" width="16" height="16" version="1"><defs><style id="current-color-scheme" type="text/css"></style></defs><path d="M7.092 2.047c-3.556 0-2.728 3.248-4.549 4.226-.063.036-.098.069-.154.104 1.2-.715 2.68-1.312 4.252-1.717a17.349 17.349 0 0 1 4.021-.559c-1.2-.34-1.332-2.054-3.57-2.054zm3.875 2.955a17.357 17.357 0 0 0-3.926.558C2.655 6.69-.471 9.144.059 11.043c.305 1.085 1.777 1.801 3.97 1.931 0-.008-.002-.015-.003-.023-.119-1.027.533-1.92 1.296-2.526.764-.605 1.747-1.045 2.85-1.279 1.103-.234 2.136-.223 3 .037.812.245 1.576.778 1.764 1.694 2.198-1.233 3.338-2.719 3.008-3.92-.35-1.258-2.259-2.008-4.977-1.955zM9.662 10a1.859 3.577 76.001 0 0-1.377.142 1.859 3.577 76.001 0 0-3.279 2.6 1.859 3.577 76.001 0 0 3.709 1.115 1.859 3.577 76.001 0 0 3.277-2.599A1.859 3.577 76.001 0 0 9.662 10z" fill="currentColor" color="#5294e2"/></svg>
